packages/tokens/icons/boxUp/size32Px.svg

<svg viewBox="0 0 32 32" fill="none" xmlns="http://www.w3.org/2000/svg" width="1em" height="1em"><path d="M16 14.5L16 3.25" stroke="currentColor" stroke-linecap="round" stroke-linejoin="round"/><path d="M11.5 7.00006L16 2.50006L20.5 7.00006" stroke="currentColor" stroke-linecap="round" stroke-linejoin="round"/><path d="M12 10.5H8.5C7.39543 10.5 6.5 11.3954 6.5 12.5V27.5C6.5 28.6046 7.39543 29.5 8.5 29.5H23.5C24.6046 29.5 25.5 28.6046 25.5 27.5V12.5C25.5 11.3954 24.6046 10.5 23.5 10.5H19.5" stroke="currentColor" stroke-linecap="round"/></svg>

<svg xmlns="http://www.w3.org/2000/svg" fill="none" viewBox="0 0 32 32" width="1em" height="1em"><path stroke="currentColor" stroke-linecap="round" stroke-linejoin="round" d="M16 14.5V3.25M11.5 7 16 2.5 20.5 7"/><path stroke="currentColor" stroke-linecap="round" d="M12 10.5H8.5a2 2 0 0 0-2 2v15a2 2 0 0 0 2 2h15a2 2 0 0 0 2-2v-15a2 2 0 0 0-2-2h-4"/></svg>
